assets/apple-pay.svg

<svg viewBox="0 0 24 16" fill="none" xmlns="http://www.w3.org/2000/svg">
<path d="M0 2C0 0.895431 0.895431 0 2 0H22C23.1046 0 24 0.895431 24 2V14C24 15.1046 23.1046 16 22 16H2C0.89543 16 0 15.1046 0 14V2Z" fill="#E6E6E6"/>
<path d="M18.6052 12.5643C19.527 12.5643 19.9608 12.2126 20.3398 11.1464L22 6.48992H21.0388L19.9255 10.0925H19.906L18.7927 6.4948H17.8042L19.4058 10.9269L19.32 11.1964C19.2594 11.5823 18.913 11.8576 18.5231 11.8291C18.4487 11.8291 18.3043 11.8214 18.2458 11.8137V12.5456C18.3649 12.5618 18.4853 12.5696 18.6052 12.5692V12.5643ZM15.4019 10.2324C14.8977 10.2324 14.5777 9.9884 14.5777 9.6192C14.5777 9.23658 14.8864 9.01375 15.4763 8.97838L16.527 8.9121V9.25609C16.5038 9.82291 16.0253 10.2641 15.4585 10.2409C15.4393 10.2401 15.4206 10.2385 15.4019 10.2368V10.2324ZM15.1482 10.9549C15.7203 10.9704 16.2554 10.6723 16.5429 10.1775H16.5624V10.9094H17.4374V7.87809C17.4374 6.999 16.7344 6.43259 15.652 6.43259C14.6481 6.43259 13.9056 7.00673 13.8784 7.79596H14.7302C14.8319 7.39463 15.2133 7.12993 15.6248 7.17466C16.203 7.17466 16.527 7.44424 16.527 7.9403V8.27616L15.3479 8.34651C14.25 8.41278 13.6564 8.86209 13.6564 9.64359C13.6555 10.4361 14.2687 10.9594 15.1478 10.9594L15.1482 10.9549ZM10.0774 5.6149H11.1671C11.9876 5.6149 12.4564 6.05241 12.4564 6.82212C12.4564 7.59184 11.9876 8.03301 11.1634 8.03301H10.0774V5.6149ZM9.132 4.81794V10.9082H10.0774V8.832H11.3862C12.4524 8.88933 13.3628 8.07164 13.4201 7.00551C13.4234 6.94492 13.4238 6.88474 13.4213 6.82416C13.4718 5.76982 12.6581 4.87446 11.6038 4.82364C11.5416 4.82079 11.4798 4.8212 11.4176 4.82404L9.132 4.81794ZM5.99419 5.95442C5.45096 5.92311 4.9862 6.26304 4.72841 6.26304C4.47062 6.26304 4.07214 5.97028 3.64235 5.97841C3.0731 5.99305 2.55426 6.30817 2.27899 6.80667C1.69306 7.81466 2.12651 9.30692 2.69292 10.1271C2.97023 10.5337 3.30283 10.9789 3.73994 10.963C4.15387 10.9476 4.31814 10.6935 4.81827 10.6935C5.3184 10.6935 5.46681 10.963 5.90433 10.9549C6.35729 10.9472 6.64273 10.5483 6.92085 10.1417C7.11684 9.85381 7.26932 9.53869 7.37382 9.20649C6.83994 8.97309 6.49391 8.44735 6.49107 7.86467C6.4992 7.35072 6.76837 6.87661 7.20589 6.60703C6.92695 6.21099 6.47927 5.96784 5.995 5.95076L5.99419 5.95442ZM5.65507 5.41647C5.41721 5.71614 5.05329 5.88814 4.67067 5.88123C4.64627 5.50796 4.77314 5.14079 5.02239 4.86186C5.27042 4.57398 5.62011 4.39344 5.99825 4.35807C6.02509 4.74191 5.90189 5.12087 5.65426 5.41525" fill="black"/>
</svg>

<svg xmlns="http://www.w3.org/2000/svg" width="24" height="16" viewBox="0 0 24 16">
  <path fill="#e6e6e6" d="M0 2a2 2 0 0 1 2-2h20a2 2 0 0 1 2 2v12a2 2 0 0 1-2 2H2a2 2 0 0 1-2-2V2Z" />
  <path
    d="M18.605 12.564c.922 0 1.356-.351 1.735-1.418L22 6.49h-.961l-1.114 3.602h-.019l-1.113-3.597h-.989l1.602 4.432-.086.27a.751.751 0 0 1-.797.632c-.074 0-.219-.008-.277-.015v.732c.119.016.24.024.36.023v-.005Zm-3.203-2.332c-.504 0-.824-.244-.824-.613 0-.382.308-.605.898-.64l1.051-.067v.344a1.028 1.028 0 0 1-1.125.98v-.004Zm-.254.723a1.564 1.564 0 0 0 1.395-.777h.02v.731h.874V7.88c0-.88-.703-1.446-1.785-1.446-1.004 0-1.746.574-1.774 1.363h.852a.83.83 0 0 1 .895-.621c.578 0 .902.27.902.765v.336l-1.18.07c-1.097.067-1.69.516-1.69 1.298-.002.792.612 1.315 1.49 1.315l.001-.004Zm-5.07-5.34h1.09c.82 0 1.288.437 1.288 1.207s-.468 1.211-1.293 1.211h-1.086V5.615Zm-.946-.797v6.09h.945V8.832h1.31a1.933 1.933 0 0 0 2.034-2.008 1.911 1.911 0 0 0-2.003-2l-2.286-.006ZM5.994 5.954c-.543-.03-1.008.309-1.266.309-.257 0-.656-.293-1.086-.285-.569.015-1.088.33-1.363.829-.586 1.008-.152 2.5.414 3.32.277.407.61.852 1.047.836.414-.015.578-.27 1.078-.27.5 0 .649.27 1.086.262.453-.008.739-.407 1.017-.813a3.56 3.56 0 0 0 .453-.936 1.472 1.472 0 0 1-.883-1.341c.008-.514.277-.988.715-1.258a1.548 1.548 0 0 0-1.211-.656v.003Zm-.339-.538c-.238.3-.602.472-.984.465-.025-.373.102-.74.351-1.02.248-.287.598-.468.976-.503.027.384-.096.763-.344 1.057" />
</svg>
